storage/app/icons/phosphoricons/bold/footprints-bold.svg

<svg xmlns="http://www.w3.org/2000/svg" fill="currentColor" viewBox="0 0 256 256"><path d="M212 180h-56a12 12 0 0 0-12 12v12a40 40 0 0 0 80 0v-12a12 12 0 0 0-12-12m-28 40a16 16 0 0 1-16-16h32a16 16 0 0 1-16 16m-84-64H44a12 12 0 0 0-12 12v12a40 40 0 0 0 80 0v-12a12 12 0 0 0-12-12m-28 40a16 16 0 0 1-16-16h32a16 16 0 0 1-16 16m0-184c-14.06 0-27.7 12.33-37.41 33.83-12.45 27.57-16.78 67.52 3.14 90.11a12 12 0 0 0 9 4.06h50.52a12 12 0 0 0 9-4.06c19.92-22.59 15.59-62.54 3.14-90.11C99.68 24.33 86 12 72 12m19.07 104H52.9c-6.71-12.13-7.67-35.45 3.56-60.3C63.16 40.85 70.28 36 72 36s8.82 4.85 15.53 19.7c11.2 24.85 10.24 48.17 3.54 60.3m67.68 48h50.54a12 12 0 0 0 9-4.06c19.92-22.59 15.59-62.54 3.14-90.11C211.72 48.33 198.08 36 184 36s-27.7 12.33-37.41 33.83c-12.45 27.57-16.78 67.52 3.14 90.11a12 12 0 0 0 9.02 4.06m9.74-84.3C175.2 64.85 182.32 60 184 60s8.82 4.85 15.52 19.7c11.23 24.85 10.27 48.17 3.56 60.3h-38.15c-6.7-12.13-7.66-35.45 3.56-60.3"/></svg>

<svg xmlns="http://www.w3.org/2000/svg" viewBox="0 0 256 256" fill="currentColor"><path d="M212,180H156a12,12,0,0,0-12,12v12a40,40,0,0,0,80,0V192A12,12,0,0,0,212,180Zm-28,40a16,16,0,0,1-16-16h32A16,16,0,0,1,184,220Zm-84-64H44a12,12,0,0,0-12,12v12a40,40,0,0,0,80,0V168A12,12,0,0,0,100,156ZM72,196a16,16,0,0,1-16-16H88A16,16,0,0,1,72,196ZM72,12c-14.06,0-27.7,12.33-37.41,33.83-12.45,27.57-16.78,67.52,3.14,90.11a12,12,0,0,0,9,4.06H97.25a12,12,0,0,0,9-4.06c19.92-22.59,15.59-62.54,3.14-90.11C99.68,24.33,86,12,72,12ZM91.07,116H52.9c-6.71-12.13-7.67-35.45,3.56-60.3C63.16,40.85,70.28,36,72,36s8.82,4.85,15.53,19.7C98.73,80.55,97.77,103.87,91.07,116Zm67.68,48h50.54a12,12,0,0,0,9-4.06c19.92-22.59,15.59-62.54,3.14-90.11C211.72,48.33,198.08,36,184,36s-27.7,12.33-37.41,33.83c-12.45,27.57-16.78,67.52,3.14,90.11A12,12,0,0,0,158.75,164Zm9.74-84.3C175.2,64.85,182.32,60,184,60s8.82,4.85,15.52,19.7c11.23,24.85,10.27,48.17,3.56,60.3H164.93C158.23,127.87,157.27,104.55,168.49,79.7Z"/></svg>
